static/images/social/instagram.svg

<svg height="39.999" viewBox="0 0 40 39.999" width="40" xmlns="http://www.w3.org/2000/svg"><path d="m20 40a20 20 0 0 1 -7.785-38.427 20 20 0 0 1 15.57 36.855 19.875 19.875 0 0 1 -7.785 1.572zm-4.85-32.743a7.341 7.341 0 0 0 -7.333 7.332v9.947a7.342 7.342 0 0 0 7.333 7.333h9.95a7.342 7.342 0 0 0 7.333-7.333v-9.947a7.341 7.341 0 0 0 -7.333-7.332zm9.943 22.132h-9.943a4.861 4.861 0 0 1 -4.856-4.855v-9.945a4.855 4.855 0 0 1 4.856-4.856h9.95a4.855 4.855 0 0 1 4.854 4.856v9.944a4.861 4.861 0 0 1 -4.861 4.856zm-4.981-16.7a6.9 6.9 0 1 0 6.9 6.9 6.912 6.912 0 0 0 -6.9-6.901zm6.548-1.243a1.655 1.655 0 1 0 1.655 1.654 1.657 1.657 0 0 0 -1.655-1.655zm-6.548 12.364a4.218 4.218 0 1 1 4.218-4.218 4.224 4.224 0 0 1 -4.218 4.218z" fill="#131214" transform="translate(0 -.001)"/></svg>

<svg xmlns="http://www.w3.org/2000/svg" width="40" height="39.999" viewBox="0 0 40 39.999"><defs><style>.a{fill:#131214;}</style></defs><g transform="translate(-67 9.999)"><path class="a" d="M20,40A20,20,0,0,1,12.215,1.573a20,20,0,0,1,15.57,36.855A19.875,19.875,0,0,1,20,40ZM15.15,7.257a7.341,7.341,0,0,0-7.333,7.332v9.947a7.342,7.342,0,0,0,7.333,7.333H25.1a7.342,7.342,0,0,0,7.333-7.333V14.589A7.341,7.341,0,0,0,25.1,7.257Zm9.943,22.132H15.15a4.861,4.861,0,0,1-4.856-4.855V14.589A4.855,4.855,0,0,1,15.15,9.733H25.1a4.855,4.855,0,0,1,4.854,4.856v9.944A4.861,4.861,0,0,1,25.093,29.389Zm-4.981-16.7a6.9,6.9,0,1,0,6.9,6.9A6.912,6.912,0,0,0,20.112,12.688Zm6.548-1.243A1.655,1.655,0,1,0,28.315,13.1,1.657,1.657,0,0,0,26.66,11.445ZM20.112,23.81a4.218,4.218,0,1,1,4.218-4.218A4.224,4.224,0,0,1,20.112,23.81Z" transform="translate(67 -10)"/></g></svg>
